img/union-10.svg

<svg fill="none" height="29" viewBox="0 0 30 29" width="30" xmlns="http://www.w3.org/2000/svg"><path d="m1.26099 28.5767h-.368265v.3682h.368265zm13.99391-27.619633c7.5253-.000001 13.6257 6.100423 13.6257 13.625633h.7365c0-7.93199-6.4302-14.362156-14.3622-14.362156zm-13.62565 13.625633c0-7.52521 6.10041-13.625633 13.62565-13.625633v-.736523c-7.93201.000001-14.362176 6.430176-14.362176 14.362156zm0 13.994v-13.994h-.736526l.000001 13.994zm13.62565-.3683h-13.99391v.7365h13.99391zm13.6257-13.6257c0 7.5253-6.1004 13.6257-13.6257 13.6257v.7365c7.932 0 14.3622-6.4302 14.3622-14.3622z" fill="#5b57ca"/></svg>

<svg width="30" height="29" viewBox="0 0 30 29" fill="none" xmlns="http://www.w3.org/2000/svg">
<path d="M1.26099 28.5767L0.892725 28.5767L0.892725 28.9449L1.26099 28.9449L1.26099 28.5767ZM15.2549 0.957067C22.7802 0.957066 28.8806 7.05749 28.8806 14.5827L29.6171 14.5827C29.6171 6.65071 23.1869 0.220544 15.2549 0.220544L15.2549 0.957067ZM1.62925 14.5827C1.62925 7.05749 7.72966 0.957067 15.2549 0.957067L15.2549 0.220544C7.32289 0.220545 0.892724 6.65072 0.892724 14.5827L1.62925 14.5827ZM1.62925 28.5767L1.62925 14.5827L0.892724 14.5827L0.892725 28.5767L1.62925 28.5767ZM15.2549 28.2084L1.26099 28.2084L1.26099 28.9449L15.2549 28.9449L15.2549 28.2084ZM28.8806 14.5827C28.8806 22.108 22.7802 28.2084 15.2549 28.2084L15.2549 28.9449C23.1869 28.9449 29.6171 22.5147 29.6171 14.5827L28.8806 14.5827Z" fill="#5B57CA"/>
</svg>
